X: 109
T:Sailor's Bonnet
R:Reel
M:4/4
L:1/8
Q:1/2=112
K:D
|:(3ABA FA d~f3|dfef d~B3|(3ABA FA df{a}fe|[1 dBAF ADDB:|[2 dBAF ADD2||
~a3a {b}afef|afef d~B3|fb (3bbb bafa|bfaf {a}feef|
b~f3 a~f3|afef d~B3|(3ABA FA df{a}fe|[1 dBAF ADD2:|[2 dBAF ADDB|]
